T: Tap The Barrel
M: 4/4
L: 1/8
K: Gmaj
c|BAG AFD|~D3 AFD|BAG AFD|DGG G2c|!BAG AFD|~D3 AFD|BGB cAF|~G3 G2:||!e|f2d g2e|f2d cAG|g2g gbg|afd d2e|!fed g2e|f2d cAG|BAG cAF|~G3 G2:||
